file/tunetank.svg

<svg clip-rule="evenodd" fill-rule="evenodd" stroke-linejoin="round" stroke-miterlimit="2" viewBox="0 0 560 400" xmlns="http://www.w3.org/2000/svg" xmlns:xlink="http://www.w3.org/1999/xlink"><radialGradient id="a" cx="0" cy="0" gradientTransform="matrix(-34.5807 -59.8954 59.7435 -34.4929 77.8068 84.1376)" gradientUnits="userSpaceOnUse" r="1"><stop offset="0" stop-color="#ffb800"/><stop offset=".37" stop-color="#ffb800"/><stop offset="1" stop-color="#ffd600"/></radialGradient><radialGradient id="b" cx="0" cy="0" gradientTransform="matrix(34.5806 59.8954 -96.0569 55.4585 60.5176 54.1839)" gradientUnits="userSpaceOnUse" r="1"><stop offset="0" stop-color="#ffd600"/><stop offset=".54" stop-color="#ffd600"/><stop offset="1" stop-color="#ffb800"/></radialGradient><path d="m216.446 206.082c0 11.925 7.283 19.116 18.206 19.116 4.278 0 7.647-1.366 9.831-2.731 1.274-.819 2.367-1.73 3.368-2.731h.455v4.552h9.103v-45.515h-9.103v27.309c0 5.917-5.006 10.923-11.834 10.923-6.281 0-10.923-5.006-10.923-10.923v-27.309h-9.103zm206.47 18.205h8.648v-29.129c0-10.559-6.736-17.295-18.661-17.295-11.378 0-18.206 6.463-18.661 14.109h9.103c.455-2.731 3.186-6.372 9.558-6.372 5.917 0 9.558 3.641 9.558 9.558v.91h-11.378c-12.744 0-18.661 5.917-18.661 15.02 0 8.284 6.372 14.11 16.385 14.11 4.733 0 8.192-1.457 10.378-2.913 1.274-.819 2.366-1.821 3.276-3.004h.455zm-75.595-13.199c-1.456 3.186-5.462 6.372-10.923 6.372-7.283 0-12.654-5.006-13.655-12.744h35.046l.182-1.274c.019-.171.042-.353.066-.547.093-.738.207-1.649.207-2.73 0-12.744-9.558-22.302-21.846-22.302-13.2 0-22.758 9.558-22.758 23.667 0 14.11 9.558 23.668 22.758 23.668 11.833 0 18.297-8.193 20.481-14.11zm151.729 13.199h-9.103v-63.72h9.103v39.143l19.116-20.937h10.924l-20.482 22.302 21.392 23.212h-10.924l-20.026-21.847zm-49.653 0h-9.103v-45.514h9.103v4.551h.455c1.002-1.001 2.095-1.911 3.369-2.731 2.185-1.365 5.461-2.73 9.831-2.73 10.924 0 18.206 7.191 18.206 19.116v27.308h-9.103v-27.308c0-5.917-4.643-10.924-10.923-10.924-6.828 0-11.835 5.007-11.835 10.924zm-71.416 0c-6.463 0-10.013-3.641-10.013-9.558v-27.308h-7.282v-8.648h7.282v-12.744h9.103v12.744h10.468v8.648h-10.468v25.943c0 1.821.91 2.731 2.731 2.731h7.737v8.192zm-102.738 0h-9.103v-45.514h9.103v4.551h.455c1.001-1.001 2.093-1.911 3.368-2.731 2.184-1.365 5.462-2.73 9.831-2.73 10.923 0 18.206 7.191 18.206 19.116v27.308h-9.103v-27.308c0-5.917-4.643-10.924-10.924-10.924-6.827 0-11.833 5.007-11.833 10.924zm-74.976 0c-6.463 0-10.013-3.641-10.013-9.558v-27.308h-7.282v-8.648h7.282v-12.744h9.103v12.744h10.468v8.648h-10.468v25.943c0 1.821.91 2.731 2.731 2.731h7.737v8.192zm222.194-19.116c0 7.738-4.46 12.289-12.743 12.289-5.463 0-8.193-2.731-8.193-6.827s3.094-7.282 10.013-7.282h10.923zm-99.718-7.282c1.365-7.282 5.917-12.289 13.655-12.289 7.282 0 12.197 5.007 13.199 12.289z" transform="matrix(.9999998814 0 0 .9999998814 -.00004527 -.0005834)"/><path d="m30 133.7429707h132.51417541128v132.51417541128h-132.51417541128z" fill="none" stroke-width=".95800536"/><g fill-rule="nonzero"><path d="m78.964 20.474c2.924-.164 5.723-.079 8.351.256l14.948 25.891c-2.628-.335-5.427-.42-8.35-.256z" fill="url(#a)" transform="matrix(.95800536 0 0 .95800536 30 133.7429707)"/><path d="m49.9 29.07c2.962-1.558 5.943-2.906 8.906-4.044l14.948 25.891c-2.963 1.138-5.944 2.486-8.906 4.044z" fill="url(#a)" transform="matrix(.95800536 0 0 .95800536 30 133.7429707)"/><path d="m25.216 48.939c1.773-2.214 3.769-4.392 5.969-6.501l14.948 25.891c-2.2 2.11-4.195 4.287-5.969 6.501z" fill="url(#a)" transform="matrix(.95800536 0 0 .95800536 30 133.7429707)"/><path d="m31.138 92.349c-1.153 5.152-.806 10.04 1.278 14.246l-.031.018-13.818-23.935.031-.018c-.208-.312-.407-.633-.596-.96-2.553-4.421-3.057-9.678-1.812-15.242z" fill="url(#a)" transform="matrix(.95800536 0 0 .95800536 30 133.7429707)"/><path d="m108.157 47.883-14.948-25.891c5.441 1.704 9.74 4.769 12.293 9.19.189.327.367.659.534.996l.031-.018 13.818 23.934-.031.018c-2.6-3.907-6.66-6.652-11.697-8.229z" fill="url(#a)" transform="matrix(.95800536 0 0 .95800536 30 133.7429707)"/><path d="m32.83 32.663c2.467-1.997 5.125-3.905 7.956-5.691l21.325 36.936c-2.831 1.786-5.489 3.693-7.956 5.69z" fill="url(#a)" transform="matrix(.95800536 0 0 .95800536 30 133.7429707)"/><path d="m14.856 55.206c1.024-2.444 2.35-4.911 3.954-7.36l21.325 36.936c-1.604 2.449-2.93 4.916-3.954 7.359z" fill="url(#a)" transform="matrix(.95800536 0 0 .95800536 30 133.7429707)"/><path d="m83.044 54.383-21.325-36.936c2.927-.85 5.811-1.489 8.615-1.918l21.325 36.935c-2.804.429-5.688 1.069-8.615 1.919z" fill="url(#a)" transform="matrix(.95800536 0 0 .95800536 30 133.7429707)"/><path d="m59.359 118.071c-2.923.164-5.723.079-8.351-.255l-14.949-25.893c2.628.334 5.428.42 8.351.255z" fill="url(#b)" transform="matrix(.95800536 0 0 .95800536 30 133.7429707)"/><path d="m88.424 109.475c-2.963 1.559-5.943 2.907-8.906 4.045l-14.949-25.892c2.963-1.139 5.944-2.487 8.906-4.045z" fill="url(#b)" transform="matrix(.95800536 0 0 .95800536 30 133.7429707)"/><path d="m113.107 89.607c-1.773 2.214-3.769 4.391-5.968 6.501l-14.949-25.892c2.2-2.11 4.195-4.287 5.969-6.501z" fill="url(#b)" transform="matrix(.95800536 0 0 .95800536 30 133.7429707)"/><path d="m107.185 46.197c1.153-5.152.807-10.041-1.277-14.247l.031-.017 13.818 23.934-.031.018c.208.313.407.633.596.96 2.553 4.422 3.057 9.679 1.812 15.243z" fill="url(#b)" transform="matrix(.95800536 0 0 .95800536 30 133.7429707)"/><path d="m30.165 90.66 14.95 25.893c-5.441-1.704-9.741-4.769-12.293-9.19-.189-.327-.367-.659-.534-.996l-.031.018-13.818-23.934.031-.018c2.6 3.906 6.659 6.65 11.695 8.227z" fill="url(#b)" transform="matrix(.95800536 0 0 .95800536 30 133.7429707)"/><path d="m105.493 105.885c-2.467 1.997-5.125 3.904-7.956 5.69l-21.326-36.937c2.831-1.786 5.489-3.694 7.956-5.691z" fill="url(#b)" transform="matrix(.95800536 0 0 .95800536 30 133.7429707)"/><path d="m123.467 83.342c-1.024 2.443-2.35 4.91-3.954 7.36l-21.325-36.938c1.604-2.449 2.929-4.916 3.954-7.359z" fill="url(#b)" transform="matrix(.95800536 0 0 .95800536 30 133.7429707)"/><path d="m55.278 84.162 21.326 36.938c-2.927.85-5.811 1.49-8.615 1.919l-21.326-36.938c2.804-.429 5.688-1.069 8.615-1.919z" fill="url(#b)" transform="matrix(.95800536 0 0 .95800536 30 133.7429707)"/></g></svg>

<?xml version="1.0" encoding="UTF-8" standalone="no"?>
<!DOCTYPE svg PUBLIC "-//W3C//DTD SVG 1.1//EN" "http://www.w3.org/Graphics/SVG/1.1/DTD/svg11.dtd">
<svg width="100%" height="100%" viewBox="0 0 560 400" version="1.1" xmlns="http://www.w3.org/2000/svg" xmlns:xlink="http://www.w3.org/1999/xlink" xml:space="preserve" xmlns:serif="http://www.serif.com/" style="fill-rule:evenodd;clip-rule:evenodd;stroke-linejoin:round;stroke-miterlimit:2;">
    <g transform="matrix(1.2207,0,0,1.2207,30,155.104)">
        <g transform="matrix(0.819202,0,0,0.819202,-24.5761,-127.062)">
            <path d="M216.446,206.082C216.446,218.007 223.729,225.198 234.652,225.198C238.93,225.198 242.299,223.832 244.483,222.467C245.757,221.648 246.85,220.737 247.851,219.736L248.306,219.736L248.306,224.288L257.409,224.288L257.409,178.773L248.306,178.773L248.306,206.082C248.306,211.999 243.3,217.005 236.472,217.005C230.191,217.005 225.549,211.999 225.549,206.082L225.549,178.773L216.446,178.773L216.446,206.082ZM422.916,224.287L431.564,224.287L431.564,195.158C431.564,184.599 424.828,177.863 412.903,177.863C401.525,177.863 394.697,184.326 394.242,191.972L403.345,191.972C403.8,189.241 406.531,185.6 412.903,185.6C418.82,185.6 422.461,189.241 422.461,195.158L422.461,196.068L411.083,196.068C398.339,196.068 392.422,201.985 392.422,211.088C392.422,219.372 398.794,225.198 408.807,225.198C413.54,225.198 416.999,223.741 419.185,222.285C420.459,221.466 421.551,220.464 422.461,219.281L422.916,219.281L422.916,224.287ZM347.321,211.088C345.865,214.274 341.859,217.46 336.398,217.46C329.115,217.46 323.744,212.454 322.743,204.716L357.789,204.716L357.971,203.442C357.99,203.271 358.013,203.089 358.037,202.895C358.13,202.157 358.244,201.246 358.244,200.165C358.244,187.421 348.686,177.863 336.398,177.863C323.198,177.863 313.64,187.421 313.64,201.53C313.64,215.64 323.198,225.198 336.398,225.198C348.231,225.198 354.695,217.005 356.879,211.088L347.321,211.088ZM499.05,224.287L489.947,224.287L489.947,160.567L499.05,160.567L499.05,199.71L518.166,178.773L529.09,178.773L508.608,201.075L530,224.287L519.076,224.287L499.05,202.44L499.05,224.287ZM449.397,224.287L440.294,224.287L440.294,178.773L449.397,178.773L449.397,183.324L449.852,183.324C450.854,182.323 451.947,181.413 453.221,180.593C455.406,179.228 458.682,177.863 463.052,177.863C473.976,177.863 481.258,185.054 481.258,196.979L481.258,224.287L472.155,224.287L472.155,196.979C472.155,191.062 467.512,186.055 461.232,186.055C454.404,186.055 449.397,191.062 449.397,196.979L449.397,224.287ZM377.981,224.287C371.518,224.287 367.968,220.646 367.968,214.729L367.968,187.421L360.686,187.421L360.686,178.773L367.968,178.773L367.968,166.029L377.071,166.029L377.071,178.773L387.539,178.773L387.539,187.421L377.071,187.421L377.071,213.364C377.071,215.185 377.981,216.095 379.802,216.095L387.539,216.095L387.539,224.287L377.981,224.287ZM275.243,224.287L266.14,224.287L266.14,178.773L275.243,178.773L275.243,183.324L275.698,183.324C276.699,182.323 277.791,181.413 279.066,180.593C281.25,179.228 284.528,177.863 288.897,177.863C299.82,177.863 307.103,185.054 307.103,196.979L307.103,224.287L298,224.287L298,196.979C298,191.062 293.357,186.055 287.076,186.055C280.249,186.055 275.243,191.062 275.243,196.979L275.243,224.287ZM200.267,224.287C193.804,224.287 190.254,220.646 190.254,214.729L190.254,187.421L182.972,187.421L182.972,178.773L190.254,178.773L190.254,166.029L199.357,166.029L199.357,178.773L209.825,178.773L209.825,187.421L199.357,187.421L199.357,213.364C199.357,215.185 200.267,216.095 202.088,216.095L209.825,216.095L209.825,224.287L200.267,224.287ZM422.461,205.171C422.461,212.909 418.001,217.46 409.718,217.46C404.255,217.46 401.525,214.729 401.525,210.633C401.525,206.537 404.619,203.351 411.538,203.351L422.461,203.351L422.461,205.171ZM322.743,197.889C324.108,190.607 328.66,185.6 336.398,185.6C343.68,185.6 348.595,190.607 349.597,197.889L322.743,197.889Z"/>
        </g>
        <g transform="matrix(0.7848,0,0,0.7848,1.77636e-15,-17.499)">
            <rect x="0" y="0" width="138.323" height="138.323" style="fill:none;"/>
        </g>
        <g transform="matrix(0.7848,0,0,0.7848,1.77636e-15,-17.499)">
            <path d="M78.964,20.474C81.888,20.31 84.687,20.395 87.315,20.73L102.263,46.621C99.635,46.286 96.836,46.201 93.913,46.365L78.964,20.474Z" style="fill:url(#_Radial1);fill-rule:nonzero;"/>
        </g>
        <g transform="matrix(0.7848,0,0,0.7848,1.77636e-15,-17.499)">
            <path d="M49.9,29.07C52.862,27.512 55.843,26.164 58.806,25.026L73.754,50.917C70.791,52.055 67.81,53.403 64.848,54.961L49.9,29.07Z" style="fill:url(#_Radial2);fill-rule:nonzero;"/>
        </g>
        <g transform="matrix(0.7848,0,0,0.7848,1.77636e-15,-17.499)">
            <path d="M25.216,48.939C26.989,46.725 28.985,44.547 31.185,42.438L46.133,68.329C43.933,70.439 41.938,72.616 40.164,74.83L25.216,48.939Z" style="fill:url(#_Radial3);fill-rule:nonzero;"/>
        </g>
        <g transform="matrix(0.7848,0,0,0.7848,1.77636e-15,-17.499)">
            <path d="M31.138,92.349C29.985,97.501 30.332,102.389 32.416,106.595L32.385,106.613L18.567,82.678L18.598,82.66C18.39,82.348 18.191,82.027 18.002,81.7C15.449,77.279 14.945,72.022 16.19,66.458L31.138,92.349Z" style="fill:url(#_Radial4);fill-rule:nonzero;"/>
        </g>
        <g transform="matrix(0.7848,0,0,0.7848,1.77636e-15,-17.499)">
            <path d="M108.157,47.883L93.209,21.992C98.65,23.696 102.949,26.761 105.502,31.182C105.691,31.509 105.869,31.841 106.036,32.178L106.067,32.16L119.885,56.094L119.854,56.112C117.254,52.205 113.194,49.46 108.157,47.883Z" style="fill:url(#_Radial5);fill-rule:nonzero;"/>
        </g>
        <g transform="matrix(0.7848,0,0,0.7848,1.77636e-15,-17.499)">
            <path d="M32.83,32.663C35.297,30.666 37.955,28.758 40.786,26.972L62.111,63.908C59.28,65.694 56.622,67.601 54.155,69.598L32.83,32.663Z" style="fill:url(#_Radial6);fill-rule:nonzero;"/>
        </g>
        <g transform="matrix(0.7848,0,0,0.7848,1.77636e-15,-17.499)">
            <path d="M14.856,55.206C15.88,52.762 17.206,50.295 18.81,47.846L40.135,84.782C38.531,87.231 37.205,89.698 36.181,92.141L14.856,55.206Z" style="fill:url(#_Radial7);fill-rule:nonzero;"/>
        </g>
        <g transform="matrix(0.7848,0,0,0.7848,1.77636e-15,-17.499)">
            <path d="M83.044,54.383L61.719,17.447C64.646,16.597 67.53,15.958 70.334,15.529L91.659,52.464C88.855,52.893 85.971,53.533 83.044,54.383Z" style="fill:url(#_Radial8);fill-rule:nonzero;"/>
        </g>
        <g transform="matrix(0.7848,0,0,0.7848,1.77636e-15,-17.499)">
            <path d="M59.359,118.071C56.436,118.235 53.636,118.15 51.008,117.816L36.059,91.923C38.687,92.257 41.487,92.343 44.41,92.178L59.359,118.071Z" style="fill:url(#_Radial9);fill-rule:nonzero;"/>
        </g>
        <g transform="matrix(0.7848,0,0,0.7848,1.77636e-15,-17.499)">
            <path d="M88.424,109.475C85.461,111.034 82.481,112.382 79.518,113.52L64.569,87.628C67.532,86.489 70.513,85.141 73.475,83.583L88.424,109.475Z" style="fill:url(#_Radial10);fill-rule:nonzero;"/>
        </g>
        <g transform="matrix(0.7848,0,0,0.7848,1.77636e-15,-17.499)">
            <path d="M113.107,89.607C111.334,91.821 109.338,93.998 107.139,96.108L92.19,70.216C94.39,68.106 96.385,65.929 98.159,63.715L113.107,89.607Z" style="fill:url(#_Radial11);fill-rule:nonzero;"/>
        </g>
        <g transform="matrix(0.7848,0,0,0.7848,1.77636e-15,-17.499)">
            <path d="M107.185,46.197C108.338,41.045 107.992,36.156 105.908,31.95L105.939,31.933L119.757,55.867L119.726,55.885C119.934,56.198 120.133,56.518 120.322,56.845C122.875,61.267 123.379,66.524 122.134,72.088L107.185,46.197Z" style="fill:url(#_Radial12);fill-rule:nonzero;"/>
        </g>
        <g transform="matrix(0.7848,0,0,0.7848,1.77636e-15,-17.499)">
            <path d="M30.165,90.66L45.115,116.553C39.674,114.849 35.374,111.784 32.822,107.363C32.633,107.036 32.455,106.704 32.288,106.367L32.257,106.385L18.439,82.451L18.47,82.433C21.07,86.339 25.129,89.083 30.165,90.66Z" style="fill:url(#_Radial13);fill-rule:nonzero;"/>
        </g>
        <g transform="matrix(0.7848,0,0,0.7848,1.77636e-15,-17.499)">
            <path d="M105.493,105.885C103.026,107.882 100.368,109.789 97.537,111.575L76.211,74.638C79.042,72.852 81.7,70.944 84.167,68.947L105.493,105.885Z" style="fill:url(#_Radial14);fill-rule:nonzero;"/>
        </g>
        <g transform="matrix(0.7848,0,0,0.7848,1.77636e-15,-17.499)">
            <path d="M123.467,83.342C122.443,85.785 121.117,88.252 119.513,90.702L98.188,53.764C99.792,51.315 101.117,48.848 102.142,46.405L123.467,83.342Z" style="fill:url(#_Radial15);fill-rule:nonzero;"/>
        </g>
        <g transform="matrix(0.7848,0,0,0.7848,1.77636e-15,-17.499)">
            <path d="M55.278,84.162L76.604,121.1C73.677,121.95 70.793,122.59 67.989,123.019L46.663,86.081C49.467,85.652 52.351,85.012 55.278,84.162Z" style="fill:url(#_Radial16);fill-rule:nonzero;"/>
        </g>
    </g>
    <defs>
        <radialGradient id="_Radial1" cx="0" cy="0" r="1" gradientUnits="userSpaceOnUse" gradientTransform="matrix(-34.5807,-59.8954,59.7435,-34.4929,77.8068,84.1376)"><stop offset="0" style="stop-color:rgb(255,184,0);stop-opacity:1"/><stop offset="0.37" style="stop-color:rgb(255,184,0);stop-opacity:1"/><stop offset="1" style="stop-color:rgb(255,214,0);stop-opacity:1"/><stop offset="1" style="stop-color:rgb(255,214,0);stop-opacity:1"/></radialGradient>
        <radialGradient id="_Radial2" cx="0" cy="0" r="1" gradientUnits="userSpaceOnUse" gradientTransform="matrix(-34.5807,-59.8954,59.7435,-34.4929,77.8068,84.1376)"><stop offset="0" style="stop-color:rgb(255,184,0);stop-opacity:1"/><stop offset="0.37" style="stop-color:rgb(255,184,0);stop-opacity:1"/><stop offset="1" style="stop-color:rgb(255,214,0);stop-opacity:1"/><stop offset="1" style="stop-color:rgb(255,214,0);stop-opacity:1"/></radialGradient>
        <radialGradient id="_Radial3" cx="0" cy="0" r="1" gradientUnits="userSpaceOnUse" gradientTransform="matrix(-34.5807,-59.8954,59.7435,-34.4929,77.8068,84.1376)"><stop offset="0" style="stop-color:rgb(255,184,0);stop-opacity:1"/><stop offset="0.37" style="stop-color:rgb(255,184,0);stop-opacity:1"/><stop offset="1" style="stop-color:rgb(255,214,0);stop-opacity:1"/><stop offset="1" style="stop-color:rgb(255,214,0);stop-opacity:1"/></radialGradient>
        <radialGradient id="_Radial4" cx="0" cy="0" r="1" gradientUnits="userSpaceOnUse" gradientTransform="matrix(-34.5807,-59.8954,59.7435,-34.4929,77.8068,84.1376)"><stop offset="0" style="stop-color:rgb(255,184,0);stop-opacity:1"/><stop offset="0.37" style="stop-color:rgb(255,184,0);stop-opacity:1"/><stop offset="1" style="stop-color:rgb(255,214,0);stop-opacity:1"/><stop offset="1" style="stop-color:rgb(255,214,0);stop-opacity:1"/></radialGradient>
        <radialGradient id="_Radial5" cx="0" cy="0" r="1" gradientUnits="userSpaceOnUse" gradientTransform="matrix(-34.5807,-59.8954,59.7435,-34.4929,77.8068,84.1376)"><stop offset="0" style="stop-color:rgb(255,184,0);stop-opacity:1"/><stop offset="0.37" style="stop-color:rgb(255,184,0);stop-opacity:1"/><stop offset="1" style="stop-color:rgb(255,214,0);stop-opacity:1"/><stop offset="1" style="stop-color:rgb(255,214,0);stop-opacity:1"/></radialGradient>
        <radialGradient id="_Radial6" cx="0" cy="0" r="1" gradientUnits="userSpaceOnUse" gradientTransform="matrix(-34.5807,-59.8954,59.7435,-34.4929,77.8068,84.1376)"><stop offset="0" style="stop-color:rgb(255,184,0);stop-opacity:1"/><stop offset="0.37" style="stop-color:rgb(255,184,0);stop-opacity:1"/><stop offset="1" style="stop-color:rgb(255,214,0);stop-opacity:1"/><stop offset="1" style="stop-color:rgb(255,214,0);stop-opacity:1"/></radialGradient>
        <radialGradient id="_Radial7" cx="0" cy="0" r="1" gradientUnits="userSpaceOnUse" gradientTransform="matrix(-34.5807,-59.8954,59.7435,-34.4929,77.8068,84.1376)"><stop offset="0" style="stop-color:rgb(255,184,0);stop-opacity:1"/><stop offset="0.37" style="stop-color:rgb(255,184,0);stop-opacity:1"/><stop offset="1" style="stop-color:rgb(255,214,0);stop-opacity:1"/><stop offset="1" style="stop-color:rgb(255,214,0);stop-opacity:1"/></radialGradient>
        <radialGradient id="_Radial8" cx="0" cy="0" r="1" gradientUnits="userSpaceOnUse" gradientTransform="matrix(-34.5807,-59.8954,59.7435,-34.4929,77.8068,84.1376)"><stop offset="0" style="stop-color:rgb(255,184,0);stop-opacity:1"/><stop offset="0.37" style="stop-color:rgb(255,184,0);stop-opacity:1"/><stop offset="1" style="stop-color:rgb(255,214,0);stop-opacity:1"/><stop offset="1" style="stop-color:rgb(255,214,0);stop-opacity:1"/></radialGradient>
        <radialGradient id="_Radial9" cx="0" cy="0" r="1" gradientUnits="userSpaceOnUse" gradientTransform="matrix(34.5806,59.8954,-96.0569,55.4585,60.5176,54.1839)"><stop offset="0" style="stop-color:rgb(255,214,0);stop-opacity:1"/><stop offset="0.54" style="stop-color:rgb(255,214,0);stop-opacity:1"/><stop offset="1" style="stop-color:rgb(255,184,0);stop-opacity:1"/></radialGradient>
        <radialGradient id="_Radial10" cx="0" cy="0" r="1" gradientUnits="userSpaceOnUse" gradientTransform="matrix(34.5806,59.8954,-96.0569,55.4585,60.5176,54.1839)"><stop offset="0" style="stop-color:rgb(255,214,0);stop-opacity:1"/><stop offset="0.54" style="stop-color:rgb(255,214,0);stop-opacity:1"/><stop offset="1" style="stop-color:rgb(255,184,0);stop-opacity:1"/></radialGradient>
        <radialGradient id="_Radial11" cx="0" cy="0" r="1" gradientUnits="userSpaceOnUse" gradientTransform="matrix(34.5806,59.8954,-96.0569,55.4585,60.5176,54.1839)"><stop offset="0" style="stop-color:rgb(255,214,0);stop-opacity:1"/><stop offset="0.54" style="stop-color:rgb(255,214,0);stop-opacity:1"/><stop offset="1" style="stop-color:rgb(255,184,0);stop-opacity:1"/></radialGradient>
        <radialGradient id="_Radial12" cx="0" cy="0" r="1" gradientUnits="userSpaceOnUse" gradientTransform="matrix(34.5806,59.8954,-96.0569,55.4585,60.5176,54.1839)"><stop offset="0" style="stop-color:rgb(255,214,0);stop-opacity:1"/><stop offset="0.54" style="stop-color:rgb(255,214,0);stop-opacity:1"/><stop offset="1" style="stop-color:rgb(255,184,0);stop-opacity:1"/></radialGradient>
        <radialGradient id="_Radial13" cx="0" cy="0" r="1" gradientUnits="userSpaceOnUse" gradientTransform="matrix(34.5806,59.8954,-96.0569,55.4585,60.5176,54.1839)"><stop offset="0" style="stop-color:rgb(255,214,0);stop-opacity:1"/><stop offset="0.54" style="stop-color:rgb(255,214,0);stop-opacity:1"/><stop offset="1" style="stop-color:rgb(255,184,0);stop-opacity:1"/></radialGradient>
        <radialGradient id="_Radial14" cx="0" cy="0" r="1" gradientUnits="userSpaceOnUse" gradientTransform="matrix(34.5806,59.8954,-96.0569,55.4585,60.5176,54.1839)"><stop offset="0" style="stop-color:rgb(255,214,0);stop-opacity:1"/><stop offset="0.54" style="stop-color:rgb(255,214,0);stop-opacity:1"/><stop offset="1" style="stop-color:rgb(255,184,0);stop-opacity:1"/></radialGradient>
        <radialGradient id="_Radial15" cx="0" cy="0" r="1" gradientUnits="userSpaceOnUse" gradientTransform="matrix(34.5806,59.8954,-96.0569,55.4585,60.5176,54.1839)"><stop offset="0" style="stop-color:rgb(255,214,0);stop-opacity:1"/><stop offset="0.54" style="stop-color:rgb(255,214,0);stop-opacity:1"/><stop offset="1" style="stop-color:rgb(255,184,0);stop-opacity:1"/></radialGradient>
        <radialGradient id="_Radial16" cx="0" cy="0" r="1" gradientUnits="userSpaceOnUse" gradientTransform="matrix(34.5806,59.8954,-96.0569,55.4585,60.5176,54.1839)"><stop offset="0" style="stop-color:rgb(255,214,0);stop-opacity:1"/><stop offset="0.54" style="stop-color:rgb(255,214,0);stop-opacity:1"/><stop offset="1" style="stop-color:rgb(255,184,0);stop-opacity:1"/></radialGradient>
    </defs>
</svg>
